X:56
T:Midsommarvalsen
R:Vals
Z:2007-09-05
S:Efter August Strömberg
O:Jät, Småland
D:[[Grupper/Sågskära]] - Änglarnas språk
M:3/4
L:1/4
K:Dm
fe^c|d2A|=BAG|A2F|D/2^C/2D/2E/2 F/2G/2|Ac=B|GA=B|A2e|
fe^c|d2A|=BAG| A2F|D/2^C/2D/2E/2 F/2G/2|Aff|[1 eA^c|d2e:|[2 eA^c|d2e|]
|: f2a|e2a|d2d|c2A|d/2c/2d/2e/2 f/2g/2|ac'=b|ga=b|a2e|
faa|eaa|d3/2d/2d|c2A|d/2^c/2d/2e/2 f/2g/2|aff|[1 eA^c|d2e:|[2 eA^c|d3|]
(:musicend:)

Här är ett förslag på [[!ackord]] och en [[!andrastämma]]:
(:music:)
